X:156
T:Master Jackey Wagtail
M:6/8
L:1/8
B:Thompson's Compleat Collection of 200 Favourite Country Dances, vol. 1 (London, 1757)
Z:Transcribed and edited by Flynn Titford-Mock, 2007
Z:abc's:AK/Fiddler's Companion
K:D
d3 AFD|BGE EFG|ABA AFD|fdB Bcd|efe ecA|BGE EFG|ABA AGF|dAF DFA:|
|:d3 faf|gbg efg|d3 fga|bgb afd|gbg faf|ecA Bcd|ABA AFD|dAF DFA:|

